X: 97
T: Frank's Reel
C: John McCusker
R: reel
M: C
K:A
"A"AcBA "D"F2 AF | "A"EFAB cABc | "D"~d3f "A"ecAe | "D"faec "E"BdcB |
"A"AcBA "D"F2 AF | "A"EFAB cABc | "D"~d3f "A"ecAc |  "E"BAGB [1 "A"A3E    :|2 "A"Aefg ||
"A"aAA"Amaj7"g AA"D"fA  | "A"effe cABc | "D"~d3f "A"ecAc | "Bm(E)"Bcde   "E"fefg    |
"A"aAA"Amaj7"g AA"D"fA  | "A"effe cABc | "D"~d3f "A"ecAc |  "E"BAGB    "A"Aefg ||
"A"aAA"Amaj7"g AA"D"fA  | "A"effe cABc | "D"~d3f "A"ecAe | "D"faec "E"BdcB |
"A"AcBA "D"F2 AF | "A"EFAB cABc | "D"~d3f "A"ecAc |  "E"BAGB    "A"A4      |]


